picto/call-for-help.svg

<svg class="color-immutable" width="24" height="24" viewBox="0 0 24 24" fill="none" xmlns="http://www.w3.org/2000/svg"><g clip-path="url(#a)"><path d="M0 22.5v-21C0 .675.675 0 1.5 0h21c.825 0 1.5.675 1.5 1.5v21c0 .825-.675 1.5-1.5 1.5h-21C.675 24 0 23.325 0 22.5Z" fill="#2D327D"/><path d="M19.65 15.072a1.446 1.446 0 0 0-.797-1.275l-.036-.017c-.791-.393-2.133-1.333-2.133-3.182 0-2.237-.16-3.42-.57-4.222-.455-.889-1.234-1.294-2.517-1.309.019-.332.03-1.052-.42-1.572C12.982 3.268 12.62 3 12 3s-.982.268-1.177.494c-.45.52-.439 1.24-.42 1.572-1.283.015-2.062.42-2.517 1.309-.41.801-.57 1.985-.57 4.222 0 1.85-1.342 2.789-2.133 3.182a1.448 1.448 0 0 0-.833 1.292v1.085h15.3v-1.084ZM11.403 3.995c.133-.153.328-.228.597-.228.269 0 .464.075.597.229.255.294.237.838.233 1.069h-1.66c-.004-.231-.022-.775.233-1.07ZM10.468 16.539a1.594 1.594 0 1 0 3.064 0h-3.064Z" fill="#fff"/></g><defs><clipPath id="a"><path fill="#fff" d="M0 0h24v24H0z"/></clipPath></defs></svg>

<svg class="color-immutable" width="24" height="24" viewBox="0 0 24 24" fill="none" xmlns="http://www.w3.org/2000/svg"><path d="M0 22.5V1.5C0 0.675 0.675 0 1.5 0H22.5C23.325 0 24 0.675 24 1.5V22.5C24 23.325 23.325 24 22.5 24H1.5C0.675 24 0 23.325 0 22.5Z" fill="#2D327D"/><path d="M19.65 15.072C19.643 14.514 19.321 14.032 18.853 13.797C18.841 13.791 18.829 13.785 18.817 13.78C18.026 13.387 16.684 12.447 16.684 10.598C16.684 8.361 16.524 7.178 16.114 6.376C15.659 5.487 14.88 5.082 13.597 5.067C13.616 4.735 13.627 4.015 13.177 3.495C12.982 3.268 12.62 3 12 3C11.38 3 11.018 3.268 10.823 3.494C10.373 4.014 10.384 4.734 10.403 5.066C9.11998 5.081 8.34098 5.486 7.88598 6.375C7.47598 7.176 7.31598 8.36 7.31598 10.597C7.31598 12.447 5.97398 13.386 5.18298 13.779C5.17098 13.785 5.15898 13.791 5.14698 13.796C4.67898 14.032 4.35698 14.514 4.34998 15.071V16.156H19.65V15.072ZM11.403 3.995C11.536 3.842 11.731 3.767 12 3.767C12.269 3.767 12.464 3.842 12.597 3.996C12.852 4.29 12.834 4.834 12.83 5.065H11.17C11.166 4.834 11.148 4.29 11.403 3.995Z" fill="white"/><path d="M10.468 16.539C10.428 16.679 10.406 16.826 10.406 16.979C10.406 17.859 11.12 18.573 12 18.573C12.88 18.573 13.594 17.859 13.594 16.979C13.594 16.826 13.572 16.679 13.532 16.539H10.468Z" fill="white"/></svg>
